raw-svg/equals.svg

<svg fill="none" height="24" viewBox="0 0 24 24" width="24" xmlns="http://www.w3.org/2000/svg"><path clip-rule="evenodd" d="m4.25 9c0-.41421.33579-.75.75-.75h14c.4142 0 .75.33579.75.75s-.3358.75-.75.75h-14c-.41421 0-.75-.33579-.75-.75zm0 6c0-.4142.33579-.75.75-.75h14c.4142 0 .75.3358.75.75s-.3358.75-.75.75h-14c-.41421 0-.75-.3358-.75-.75z" fill="#000" fill-rule="evenodd"/></svg>

<svg width="24" height="24" viewBox="0 0 24 24" fill="none" xmlns="http://www.w3.org/2000/svg">
<path fill-rule="evenodd" clip-rule="evenodd" d="M4.25 9C4.25 8.58579 4.58579 8.25 5 8.25H19C19.4142 8.25 19.75 8.58579 19.75 9C19.75 9.41421 19.4142 9.75 19 9.75H5C4.58579 9.75 4.25 9.41421 4.25 9ZM4.25 15C4.25 14.5858 4.58579 14.25 5 14.25H19C19.4142 14.25 19.75 14.5858 19.75 15C19.75 15.4142 19.4142 15.75 19 15.75H5C4.58579 15.75 4.25 15.4142 4.25 15Z" fill="black"/>
</svg>
